X:1
T:Agnus Dei
T:Antonio Lotti, Missa Ottavi Toni
T:Agnus Dei
C:Antonio Lotti, Missa Ottavi Toni
%%score [ 1 2 3 4 ]
L:1/8
Q:1/2=88
M:4/2
K:C
V:1 treble nm="SOPRANO" snm="S."
V:2 treble nm="ALTO" snm="A."
V:3 treble-8 transpose=-12 nm="TENOR" snm="T."
V:4 bass nm="BASS" snm="B."
V:1
 d12 d4 | e4 c4 B4 G2 A2 | B2 c2 d2 B2 c2 B2 A4 | G4 c8 B4 | A4 B4 A6 A2 | G4 G2 A2 B2 c2 d4- | %6
w: Ky- ri-|e e- le- * *|||* * * i-|son, e- * le- * *|
 d2 d2 d4 z8 | z4 G8 G4 | A4 F4 E4 C2 D2 | E2 F2 G2 E2 ^F2 G2 A4 | G6 G2 G8 | z16 | z8 G8- | %13
w: * i- son,|Ky- ri-|e e- le- * *||* i- son,||Ky-|
 G4 G4 A4 F4 | D2 E2 F4 G2 F2 E2 C2 | D8 d8 | c4 B4 A6 A2 | B16 || z4 d4 B4 G4 | A4 B4 G6 G2 | %20
w: * ri- e e-|le- * * * * * i-|son, Ky-|rie e- le- i-|son.|Chri- ste e-|le- * * i-|
 ^F4 A4 B4 c4- | c4 B4 e6 e2 | A4 A4 ^F4 D4 | E4 ^F4 G4 E4 | D8 z4 c4 | B4 G4 A6 A2 | G4 G4 c4 A4 | %27
w: son, Chri- ste e-|* * le- i-|son, Chri- ste e-|le- * * i-|son, Chri-|ste e- le- i-|son, Chri- ste e-|
 B6 B2 c8 | z4 d4 B4 G4 | A6 A2 B4 B4 | A4 ^G4 A6 A2 | A16 || d8 d4 d4 | B4 G2 A2 B2 c2 d2 B2 | %34
w: le- i- son,|Chri- ste e-|le- * * Chri-|ste e- le- i-|son.|Ky- ri- e|e- le- * * * * *|
 c6 B2 c2 d2 e2 c2 | d2 c2 B2 A2 G8- | G4 G4 G8 | z4 G4 A4 A4 | B4 d2 c2 B2 G2 A2 B2 | c4 c4 B8 | %40
w: ||* i- son,|Ky- ri- e|e- le- * * * * *|* i- son,|
 z16 | z4 d4 d4 d4 | B4 G2 A2 B4 c2 d2 | e6 d2 c8 | z4 c4 c4 c4 | c4 e2 d2 c2 B2 c2 A2 | B4 c8 B4 | %47
w: |Ky- ri- e|e- le- * * * *|* i- son,|Ky- ri- e|e- le- * * * * *|* * i-|
 c4 e2 d2 c2 d2 B2 c2 | A6 B2 c2 B2 A4 | G2 A2 B4 c2 d2 e2 c2 | A4 G4 A6 A2 | B16 |] z22 || %53
w: son, e- * * * * *||* * * le- * * *|* * * i-|son.||
[M:4/2][Q:1/2=100] d12 d4 | e4 c4 B2 A2 G2 A2 | B4 c4 d6 d2 | G8 z8 | z16 | z16 | z8 z4 d4 | %60
w: Et in|ter- ra pax _ _ _|_ ho- mi- ni-|bus.|||Lau-|
 B4 G4 A4 B2 B2 | ^c4 c2 c2 d8 | B8 c8 | B6 A2 G8- | G4 ^F4 F4 z4 | z16 | z4 A6 A2 c4 | %67
w: da- mus te. Be- ne-|di- ci- mus te.|A- do-|ra- * *|* mus te.||Gra- ti- as|
 A4 G2 G2 G4 ^F4 | G4 G4 B6 c2 | d6 cB A4 d4 | B6 B2 ^c4 A4- | A4 ^G4 z8 | A4 A2 A2 d4 A4 | %73
w: a- gi- mus ti- bi|pro- pter ma- *|* * * * gnam|glo- ri- am tu-|* am.|Do- mi- ne De- us|
 B4 ^c4 d4 d4 | z16 | z8 =c4 c4 | d2 c2 B2 AB c2 B2 A4- | A4 B8 c4- | c2 B2 A4 G6 G2 | %79
w: Rex coe- le stis.||De- us|Pa- * * * * * * *|* ter o-|* * * mni- po-|
 G8 c4 c2 c2 | B4 G4 A4 B4 | c12 B4 | c4 c8 B4 | B8 A2 G2 ^F2 ED | A8 ^F8 || z16 | z16 | z16 | %88
w: tens. Do- mi- ne|Fi- li u- ni-|ge- ni-|te Je- su|Chri- * * * * *|* ste.||||
 z4 c6 c2 B4 | e8 d8 | B4 d4 B4 G2 G2 | A4 B4 ^c8 | d8 z8 | z16 | z8 z4 d4- | d4 A4 B8 | c4 c8 B4 | %97
w: Fi- li- us|Pa- *|tris. Qui tol- lis pec-|ca- ta mun-|di:||mi-|* se- re-|re no- *|
 c8 z8 | z8 z4 c4 | d4 e6 d2 d4- | d4 ^c4 d6 d2 | d8 z8 | e4 d4 c4 B4 | A4 B4 d4 e4 | A6 G2 A8 | %105
w: bis.|pec-|ca- * ta mun-|* di: su- sci-|pe|de- pre- ca- ti-|o- nem nos- *||
 A4 A4 =B8 | A8 z8 | z16 | z4 B8 A4- | A4 A8 G4 | G4 A4 ^F4 G4- | G4 ^F4[Q:1/2=104] G8 || %112
w: tram. Qui se-|des||mi- se-|* re- re|no- * * *|* * bis.|
 G6 G2 G8 | z16 | z8 z4 d4 | d4 d4 B2 A2 G2 AB | c6 c2 c4 B4 | B4 B4 G4 G4 | G4 G4 G6 B2 | B8 E8 | %120
w: Quo- ni- am||Tu|so- lus Do- * * * *|* mi- nus. Tu|so- lus, Tu so-|lus Al- tis- si-|mus. Je-|
 F2 G2 A4 G8- | G8 G8 | z4 G4 c4 A2 A2 | B4 c4 A4 G4 | z8 d8 | B4 G4 A4 B4 | A8 B4 c4 | d8 G4 G4 | %128
w: su _ _ Chri-|* ste.|in glo- ri- a|De- i Pa- tris.|A-|||* men. a-|
 ^F4 D4 E4 F4 | G8 z8 | G4 c8 B2 A2 | G4 A4 B4 c4- | c4 B2 A2 G4 A4 | ^F4 G8 F4 | G16 |] %135
w: |men,|in glo- ri- a|De- i Pa- *|* * * * tris.|A- * *|men.|
[Q:1/2=92] z16 | z16 | z8 G8- | G4 ^F4 G8 | G8 z8 | d6 c2 B8 | e2 d2 c2 B2 A4 A4 | A6 A2 A4 d4 | %143
w: ||San-|* ctus. san-|ctus|Do- mi- nus,|De- * * * * us|Sa- ba- oth. Ple-|
 B4 G4 A8 | B4 e4 d6 c2 | B2 d2 c2 e2 A8 | B8 z8 | c6 B2 A8 | B6 A2 G4 G4- | G4 ^F4 G8 | %150
w: ni sunt coe-|li et ter- *||ra|glo- ri- a,|glo- ri- a tu-|* * a.|
 z4 d4 B4 ^c4 | d4 B4 A8 | B16 |]"^SAT" G12 G4 | A8 B8 | z4 c4 A2 B2 c2 A2 | B4 A4 G8 | z4 G8 ^F4 | %158
w: Ho- san- na|in ex- cel-|sis.|Be- ne|di- ctus|qui ve- * * *|* * nit,|be- ne-|
 G8 E4 E4 | D4 E4 z4 c4 | B6 A2 G4 G4 | A6 B2 c4 c4- | c4 B4 c4 G4 | A4 F4 G4 E4 | %164
w: di- ctus qui|ve- nit in|no- mi- ne, in|no- mi- ne Do-|* mi- ni. Ho-|san- na in ex-|
 F2 D2 G2 F2 E4 F2 E2 | D4 G6 F2 F4- | F2 E2 E2 DC D8 | C4 c4 d4 B4 | c4 d2 c2 B2 G2 c2 B2 | %169
w: cel- * * * * * *|||sis, ho- san- na|in ex- * * * * *|
 A4 d6 c2 c4- | c2 B2 B2 AG A8 | B16 |][Q:1/2=88] d12 d4 | e6 d2 c8 | d8 z4 d4 | B4 B2 B2 c6 B2 | %176
w: * cel- * *||sis.|A- gnus|De- * *|i, qui|tol- lis pec- ca- *|
 A2 Bc d6 c2 B2 cd | e6 d2 c4 B4 | A8 B4 G4- | G4 G4 A6 G2 | ^F8 G8 | z4 c4 A4 A2 A2 | B8 e4 e4- | %183
w: |* * * ta|mun- di, A-|* gnus De- *|* i,|qui tol- lis pec-|ca- ta mun-|
 e2 d2 d8 ^c4 | z4 d8 B4- | B4 e8 e4- | e4 d4 G8- | G4 F2 E2 D8 | z8 c8- | c4 B4 G4 A4 | G12 ^F4 | %191
w: * * * di:|mi- se-|* re- re|_ no- *|* * * bis,|mi-|* se- re- re|no- *|
 G16 |] %192
w: bis.|
V:2
 z16 | z8 G8- | G4 G4 A4 F4 | E4 C2 D2 E2 F2 G2 E2 | ^F4 G8 F4 | G4 E4 D6 D2 | D4 G4 E4 F4 | %7
w: |Ky-|* ri- e e-|le- * * * * * *|* * i-|son, e- le- i-|son, e- le- *|
 G4 E2 F2 G2 F2 E2 D2 | C4 D4 G,8 | z8 D8- | D4 D4 E4 C4 | B,4 G,2 A,2 B,2 C2 D2 B,2 | %12
w: |* i- son,|Ky-|* ri- e e-|le- * * * * * *|
 C4 D4 E6 D2 | C4 B,4 A,4 D2 E2 | F2 G2 A2 F2 E6 E2 | D4 G8 G4 | E2 ^F2 G8 F4 | G16 || D8 G4 E4 | %19
w: ||* * * * * i-|son, Ky- ri-|e e- le- i-|son.|Chri- ste e-|
 ^F4 G4 E6 E2 | D4 ^F4 G6 FE | D12 ^C4 | D16 | z16 | z4 G4 E4 C4 | D4 E4 ^F6 F2 | G4 G4 E4 C4 | %27
w: le- * * i-|son, Chri- ste e- *|le- i-|son,||Chri- ste e-|le- * * i-|son, Chri- ste e-|
 D6 D2 E8 | z4 D4 G4 E4 | ^F6 F2 G4 G4 | E4 D4 E6 E2 | ^F16 || z16 | G8 G4 G4 | %34
w: le- i- son,|Chri- ste e-|le- * * Chri-|ste e- le- i-|son.||Ky- ri- e|
 E4 C2 D2 E2 F2 G2 E2 | D6 C2 D2 C2 B,2 D2 | E12 E4 | D8 z4 D4 | D4 D4 G6 F2 | %39
w: e- le- * * * * *||* i-|son, Ky-|ri- e e- *|
 E2 D2 C2 E2 D2 C2 B,2 A,2 | G,2 A,2 B,4 C4 B,4 | A,4 B,4 A,6 A,2 | G,4 G4 G4 G4 | %43
w: |* * * le- i-|son, e- le- i-|son, Ky- ri- e|
 E4 C2 D2 E2 F2 G2 E2 | F4 A2 G2 F2 E2 F2 D2 | E4 C2 D2 E2 D2 E2 C2 | D4 E4 D6 D2 | G4 G4 G4 G4 | %48
w: e- le- * * * * *|||* * * i-|son, Ky- ri- e|
 F4 A2 G2 F2 G2 F2 E2 | D8 E2 F2 G2 E2 | ^F4 G8 F4 | G16 |] z22 ||[M:4/2] z4 G8 G4 | E4 A4 G6 F2 | %55
w: e- * * * * * *|* le- * * *|* * i-|son.||Et in|ter- ra pax _|
 E2 D2 C8 B,4 | C6 C2 D8 | G6 G2 E4 A4 | G2 F2 E8 D4 | C8 B,4 D4 | G4 E4 ^F4 G2 G2 | E4 E2 E2 ^F8 | %62
w: _ _ _ ho-|mi- ni- bus.|Bo- nae vo- lun|ta- * * *|* tis. Lau-|da- mus te. Be- ne-|di- ci- mus te.|
 z4 G8 ^F4 | G2 ^FE D8 ^C4 | D16 | z16 | z4 =F6 F2 G4 | F4 D2 D2 A8 | D8 z8 | D4 D4 ^F2 G2 A4- | %70
w: A- do-|ra- * * * mus|te.||Gra- ti- as|a- gi- mus ti-|bi|pro- pter ma- * *|
 A4 G4 E6 E2 | D2 C2 B,4 E8 | ^F8 D4 D2 D2 | G4 E4 ^F8 | G8 C2 D2 E4 | =F6 ED E8 | D8 z8 | %77
w: * gnam glo- ri-|am _ _ tu-|am. Do- mi- ne|De- us Rex|coe- le- * *||stis.|
 F4 F4 G2 F2 E2 D2 | C4 F2 E2 D6 D2 | E16 | G4 G2 G2 F4 D4 | E4 F4 D6 D2 | C8 z4 G4 | E12 D4- | %84
w: De- us Pa- * * *|* ter o- mni- po-|tens.|Do- mi- ne Fi- li|u- ni- ge- ni-|te Je-|su Chri-|
 D2 ^CB, C4 D8 || z16 | G4 G2 G2 E4 G4 | A4 G4 F8 | E8 D6 G2 | E4 G8 ^F4 | G4 D4 G4 E2 E2 | %91
w: * * * * ste.||Do- mi- ne De- us|A- gnus De-|i. Fi- li-|us Pa- *|tris. Qui tol- lis pec-|
 ^F4 G4 E8 | ^F4 G8 A4- | A2 G2 G8 ^F4 | G4 D8 ^F4 | A12 G4- | G4 ^F4 G8 | E4 G4 G2 F2 E2 D2 | %98
w: ca- ta mun-|di, pec- ca-|* ta mun- *|di: mi- se-|re- re|_ no- *|bis. Qui tol- * * *|
 E2 D2 C2 B,2 C2 D2 E4 | D4 G4 A4 F4 | G12 ^F4 | G6 G2 G8 | z8 A4 G4 | F4 E4 D4 ^C4 | F4 E2 D2 E8 | %105
w: |lis pec- ca- ta|mun- di:|su- sci- pe|de- pre-|ca- ti- o- nem|nos- * * *|
 ^F4 F4 G8 | ^F8 D4 G4- | G2 =F2 E8 D4 | E8 C8 | F6 E2 D8 | E8 D8- | D8 D8 || E6 E2 E4 G4 | %113
w: tram. Qui se-|des ad dex-|* te- ram Pa-|tris: mi-|* se- re-|re no-|* bis.|Quo- ni- am tu|
 G4 G4 E2 D2 C2 D2 | E2 F2 G2 A2 G8 | G4 G4 G4 G4 | G2 F2 E2 F2 G2 A2 G4- | G2 G2 G4 D4 D4 | %118
w: so- lus San- * * *||ctus. Tu so- lus|Do- * * * * * *|* mi- nus. Tu so-|
 E4 E4 D6 G2 | G8 z4 G4- | G4 F8 E4 | D8 E4 E4 | D4 E4 ^F6 F2 | G8 z8 | z8 z4 D4 | %125
w: lus Al- tis- si-|mus. Je-|* su Chri-|* ste. Cum|San- cto Spi- ri-|tu|in|
 G4 E2 E2 ^F2 D2 G4- | G4 ^F4 G8 | A4 D8 ^C4 | z16 | z4 G4 =F4 D4 | E8 D4 D4 | E4 E2 E2 =F4 G4 | %132
w: glo- ri- a De- i Pa-|* tris. A-|* * men,||a- * *|* men, in|glo- ri- a De- i|
 F4 D4 E4 E4 | D16 | D16 |] z16 | G12 G4 | E4 C2 D2 E2 F2 G2 E2 | D16 | E8 z8 | z8 z4 G4- | %141
w: Pa- tris. A- men,|a-|men.||San- ctus,|san- * * * * * *||ctus|Do-|
 G2 F2 E4 C4 F4 | E6 E2 ^F4 D4 | G4 E4 ^F8 | G8 z4 A4- | A2 G2 G8 ^F4 | G8 G6 =F2 | E8 F6 E2 | %148
w: * mi- nus De- us|Sa- ba- oth. Ple-|ni sunt coe-|li et|_ _ _ ter-|ra glo- ri-|a, glo- ri-|
 D4 E6 D2 ^C4 | D8 D4 G4 | E4 ^F4 G4 G4 | A6 G2 ^F8 | G16 |] z8 G8- | G4 ^F4 G8 | C8 z4 =F4 | %156
w: a, glo- ri- a|tu- a. Ho-|san- na in ex-|cel- * *|sis.|Be-|* ne- di-|ctus qui|
 D2 E2 F2 D2 E4 D2 C2 | B,2 C2 D2 B,2 C8 | D4 B,4 C2 D2 E2 F2 | G12 ^F4 | G8 E6 E2 | C8 F6 E2 | %162
w: ve- * * * * * *||nit, qui ve- * * *|* nit|in no- mi-|ne Do- *|
 D6 D2 E8 | z4 D4 E4 C4 | D4 B,4 C2 B,2 A,2 C2 | B,6 A,G, A,2 B,2 C2 A,2 | B,4 C8 B,4 | z8 z4 G4 | %168
w: * mi- ne.|Ho- san- na|in ex- cel- * * *||* * sis|Ho-|
 A4 F4 G4 E4 | F6 ED E2 F2 G2 E2 | ^F4 G8 F4 | G16 |] z8 G8- | G4 G4 A6 G2 | F8 G8 | %175
w: san- na in ex-|cel- * * * * * *||sis.|A-|* gnus De- *|* i,|
 z4 G4 E4 E2 E2 | F6 E2 D2 EF G4- | G4 E4 A2 G2 G4- | G4 ^F4 z8 | C12 C4 | D6 C2 B,8 | C8 z8 | %182
w: qui tol- lis pec-|ca- * * * * *|* ta mun- * *|* di,|A- gnus|De- * *|i,|
 z4 G4 E4 E2 E2 | ^F4 F4 G8- | G4 ^F4 z4 G4- | G4 E8 A4 | =F12 E4 | A8 G8 | E8 G8 | G8 E8- | %190
w: qui tol- lis pec-|ca- ta mun-|* di: mi-|* se- re|re _|no- *|bis, mi-|se- re-|
 E4 D4 D8 | D16 |] %192
w: * re no-|bis.|
V:3
 z16 | z16 | z16 | z16 | d12 d4 | e4 c4 B4 G2 A2 | B2 c2 d2 B2 c2 B2 A4 | G4 c8 B4 | %8
w: ||||Ky- ri-|e e- le- * *|||
 A4 B4 c2 d2 e2 d2 | c6 B2 A6 A2 | B8 z8 | G12 G4 | A4 F4 E4 C2 D2 | E2 F2 G2 E2 F2 G2 A4- | %14
w: |* * * i-|son,|Ky- ri-|e e- le- * *||
 A4 d4 G8 | G4 B2 c2 d2 e2 f2 d2 | e4 d4 d6 d2 | d16 || z16 | z16 | z4 d4 B4 G4 | A4 B4 G6 G2 | %22
w: * i- son,|Ky- ri- * * * * *|e e- le- i-|son.|||Chri- ste e-|le- * * i-|
 ^F4 A4 d4 B4 | c4 A4 B4 c4- | c4 B4 c8 | z4 G4 c4 A4 | B4 G4 A6 A2 | G8 G4 c4 | A4 B4 G8 | %29
w: son, Chri- ste e-|le- * * *|* i- son,|Chri- ste e-|le- * * i-|son, Chri- ste|e- le- *|
 d4 A4 d4 B4 | ^c4 d8 c4 | d16 || z16 | z16 | c8 c4 c4 | B4 G2 A2 B2 c2 d2 B2 | c6 B2 G2 A2 B2 G2 | %37
w: |* * i-|son.|||Ky- ri- e|e- lei- * * * * *||
 A4 B4 c8 | B8 z4 G4 | G4 A4 B4 d2 c2 | B2 A2 G2 F2 E2 ^F2 G4 | ^F4 G8 F4 | G8 z8 | z4 c4 c4 c4 | %44
w: |son, Ky-|ri- e e- le- *||* * i-|son,|Ky- ri- e|
 A4 c2 B2 A2 G2 A2 F2 | c6 c2 c8 | z16 | z4 G4 G4 G4 | A4 F2 G2 A2 B2 c2 A2 | B2 c2 d8 c4- | %50
w: e- le- * * * * *|* i- son,||Ky- ri- e|e- le- * * * * *||
 c4 B4 A6 A2 | G16 |] d2 d2 B2 A2 G2 A2 B2 A4 G4 ||[M:4/2] z16 | z16 | z8 d6 d2 | %56
w: * * * i-|son.|Glo- ri- a in ex- cel- sis De- o.|||Bo- nae|
 e4 c4 B2 A2 G2 A2 | B2 c2 d2 B2 c6 d2 | e6 d2 c4 B4 | A8 G8 | z16 | z8 z4 d4- | d4 e6 d2 c4 | %63
w: vo- lun ta- * * *|||* tis.||A-|* do- * *|
 d2 c2 B2 cd e4 e4 | A8 A4 d4 | B4 c8 B4 | c4 c6 c2 e4 | c4 B2 B2 c8 | B8 G4 G4 | B6 c2 d4 d4 | %70
w: ra- * * * * * mus|te. Glo- ri-|fi- ca- mus|te. Gra- ti- as|a- gi- mus ti-|bi pro- pter|ma- * * gnam|
 z4 e6 d2 ^c4 | d12 ^c4 | d16 | z8 d4 d2 d2 | B4 G4 A2 B2 c4- | c4 B4 c8 | z8 c4 c4 | %77
w: glo- ri- am|tu- *|am.|Do- mi- ne|De- us Rex coe- le-|* * stis.|De- us|
 d2 c2 B2 A2 G8 | A4 c4 B6 B2 | c16 | z16 | z16 | z8 d8- | d4 e4 ^c4 d4 | e8 d8 || d4 d2 d2 B4 d4 | %86
w: Pa- * * * *|ter o- mni- po-|tens.|||Je-|* su Chri- *|* ste.|Do- mi- ne De- us|
 e4 B4 c6 B2 | A2 B2 c8 B4 | c8 z4 d4- | d2 d2 c4 A8 | B8 z8 | z8 z4 A4 | d4 B2 B2 c8 | %93
w: A- gnus De- *||i. Fi-|* li- us Pa-|tris.|Qui|tol- lis pec- ca-|
 d4 e6 d2 c4 | B8 z4 A4- | A4 d8 e4- | e4 d2 c2 d8 | c8 z4 c4 | c2 B2 A2 G2 A2 B2 c4 | B8 z8 | %100
w: ta mun- * *|di: mi-|* se- re-|* re _ no-|bis. Qui|tol- * * * * * *|lis|
 z8 A6 A2 | B8 e4 d4 | c4 B4 A4 E4 | c4 B4 A4 G4 | A2 D2 d8 ^c4 | d8 z4 G4 | d6 c2 B8 | c6 B2 A8 | %108
w: su- sci-|pe de- pre-|ca- ti- o- nem,|de- pre- ca- ti-|o- nem nos- *|tram. ad|dex- te- ram|Pa- * *|
 ^G8 z4 e4- | e4 d4 B4 d4- | d4 c8 B4 | A8 B8 || c6 c2 c8 | z8 z4 c4 | c4 c4 c2 B2 G2 A2 | %115
w: tris: mi-|* se- re- re|_ no- *|* bis.|Quo- ni- am|tu|so- lus San- * * *|
 B2 c2 d4 d8 | z16 | z8 B4 B4 | c4 c4 B6 d2 | d4 d8 c4 | A8 B4 c4- | c2 BA B4 c4 c4 | B4 c4 A6 A2 | %123
w: * * * ctus.||Tu so-|lus Al- tis- si-|mus. Je- su,|Je- su Chri-|* * * * ste. Cum|San- cto Spi- ri-|
 G4 G4 d4 B2 B2 | c2 d2 c8 B4 | z16 | d8 B4 G4 | A4 B4 z4 G4 | d4 B2 B2 c4 A4 | B8 c4 d4 | %130
w: tu in glo- ri- a|De- i Pa- tris.||A- * men,|a- men, in|glo- ri- a De- i|Pa- tris. A-|
 c4 G6 A2 B4 | c4 c4 B4 G4 | A4 B4 c8- | c4 B4 A8 | G16 |] d12 d4 | B4 G6 A2 B4 | %137
w: |men. a- * *||* men, a-|men.|San- ctus,|san- * * *|
 c2 d2 e2 d2 c6 c2 | B4 c8 B4 | c4 c6 B2 A4- | A4 d6 c2 B4 | c4 G4 z4 d4- | d4 ^c4 d8 | z8 z4 d4 | %144
w: * * * * * ctus,|san- * *|ctus Do- mi- nus,|_ Do- mi- nus|De- us Sa-|* ba- oth.|Ple-|
 B4 G4 A8 | B4 e4 d8 | d8 z4 e4- | e2 d2 c8 d4- | d2 c2 B6 A2 G4 | A8 B4 G4 | c4 A4 B4 G4 | d16 | %152
w: ni sunt coe-|li et ter-|ra glo-|* ri- a, glo-|* * * ri- a|tu- a. Ho-|san- na in ex-|cel-|
 d16 |] z16 | z16 | z16 | z8 z4 G4- | G4 G4 A8 | B4 G4 A2 B2 c2 A2 | B4 c4 A8 | z8 z4 c4 | %161
w: sis.||||Be-|* ne di-|ctus qui ve- * * *|* * nit,|in|
 A6 G2 F2 G2 A2 F2 | G6 G2 c8 | z16 | z4 G4 A4 F4 | G4 E4 F2 G2 A2 F2 | G16 | C8 z8 | z4 d4 e4 c4 | %169
w: no- mi- ne _ _ _|Do- mi- ni.||Ho- san- na|in ex- cel- * * *||sis,|Ho- san- na|
 d4 B4 c2 d2 e2 c2 | d16 | G16 |] z16 | z16 | d12 d4 | e6 d2 c8 | d4 d4 B4 B2 B2 | c6 B2 A4 B4 | %178
w: in ex- cel- * * *||sis.|||A- gnus|De- * *|i, qui tol- lis pec-|ca- * * ta|
 c8 d8 | z16 | z8 G8 | G4 A6 G2 ^F4 | G4 d4 c4 c2 B2 | A4 A4 e8 | A8 z8 | z8 z4 A4- | A4 B8 c4- | %187
w: mun- di,||A-|gnus De- * *|i qui tol- lis pec-|ca- ta mun-|di:|mi-|* se- re-|
 c2 A2 c8 B4 | c8 e8- | e4 d8 c4- | c4 B4 A8 | B16 |] %192
w: * re no- *|bis, mi-|* se- re-|* re no-|bis.|
V:4
 z16 | z16 | z16 | z16 | z16 | z8 G,8- | G,4 G,4 A,4 F,4 | E,4 C,2 D,2 E,2 F,2 G,2 E,2 | %8
w: |||||Ky-|* ri- e e-|le- * * * * * *|
 F,4 D,4 C,8- | C,2 D,2 E,2 C,2 D,6 C,2 | B,,2 A,,2 G,,4 C,6 C,2 | G,,8 z8 | z16 | z8 D,8- | %14
w: ||* * * * i-|son,||Ky-|
 D,4 D,4 E,4 C,4 | B,,4 G,,2 A,,2 B,,2 C,2 D,2 B,,2 | C,4 G,,4 D,6 D,2 | G,,16 || z16 | z16 | %20
w: * ri- e e-|lei- * * * * * *|son, e- le- i-|son.|||
 D,8 G,4 E,4 | ^F,4 G,4 E,6 E,2 | D,8 z8 | z16 | G,,8 C,4 A,,4 | B,,4 C,4 A,,6 A,,2 | G,,8 z8 | %27
w: Chri- ste e-|le- * * i-|son.||Chri- ste e-|le- * * i-|son,|
 z4 G,4 E,4 C,4 | D,4 B,,4 E,6 E,2 | D,4 D,4 B,,4 G,,4 | A,,4 B,,4 A,,6 A,,2 | D,16 || z16 | z16 | %34
w: Chri- ste e-|le- * * i-|son, Chri- ste e-|le- * * i-|son.|||
 z16 | G,8 G,4 G,4 | E,4 C,2 D,2 E,2 F,2 G,2 E,2 | ^F,4 G,8 F,4 | G,6 A,2 G,2 =F,2 E,2 D,2 | %39
w: |Ky- ri- e|e- le- * * * * *|* * i-|son, e- le- * * *|
 C,6 C,2 G,,8 | z16 | D,8 D,4 D,4 | D,4 G,2 F,2 E,2 D,2 C,2 B,,2 | C,6 B,,2 C,2 D,2 E,2 C,2 | %44
w: * i- son,||Ky- ri- e|e- le- * * * * *||
 F,6 F,2 F,8 | z16 | G,8 G,4 G,4 | E,4 C,2 D,2 E,2 F,2 G,2 E,2 | F,16 | G,8 C,8 | D,12 D,4 | %51
w: * i- son,||Ky- ri- e|e- lei- * * * * *||son, e-|le- i-|
 G,,16 |] z22 ||[M:4/2] z16 | z16 | z16 | z16 | G,6 G,2 A,4 F,4 | E,2 D,2 C,2 D,2 E,2 F,2 G,4- | %59
w: son.||||||Bo- nae vo- lun|ta- * * * * * *|
 G,4 ^F,4 z8 | z8 D,4 G,4 | A,4 A,2 A,2 D,8 | G,8 A,8 | G,6 ^F,2 E,4 E,4 | D,8 z4 D,4 | %65
w: * tis.|Be- ne-|di- ci- mus te.|A- do-|ra- * * mus|te. Glo-|
 G,4 E,4 =F,4 D,4 | C,4 F,6 F,2 E,4 | F,4 G,2 G,2 A,8 | G,16 | z8 D,4 D,4 | G,4 G,4 A,6 A,2 | %71
w: ri- fi- ca- mus|te. Gra- ti- as|a- gi- mus ti-|bi|pro- pter|ma- gnam glo- ri-|
 =B,8 A,8 | D,16 | z8 D,4 D,2 D,2 | G,4 E,4 F,4 E,4 | D,8 C,8 | G,4 G,4 A,2 G,2 F,2 E,2 | D,8 E,8 | %78
w: am tu-|am.|Do- mi- ne|De- us Rex coe-|le- stis.|De- us Pa- * * *|* ter|
 F,8 G,6 G,2 | C,16 | z16 | z16 | z8 G,8 | ^G,8 A,8- | A,8 D,8 || z8 G,4 G,2 G,2 | %86
w: o- mni- po-|tens.|||Je-|su Chri-|* ste.|Do- mi- ne|
 E,4 G,4 A,4 E,4 | F,4 E,4 D,8 | C,8 G,6 G,2 | C,8 D,8 | G,,8 z8 | z16 | D,4 G,4 E,2 E,2 F,4- | %93
w: De- us A- gnus|De- * *|i. Fi- li-|us Pa-|tris.||Qui tol- lis pec- ca-|
 F,4 G,4 A,8 | G,8 D,8 | ^F,8 G,8 | A,8 G,8 | C,8 z8 | z8 z4 C,4 | G,8 =F,8 | E,8 D,8 | %101
w: * ta mun-|di: mi-|se- re-|re no-|bis.|pec-|ca- ta|mun- di:|
 G,6 G,2 E,8 | z16 | A,4 G,4 F,4 E,4 | D,4 _B,4 A,8 | D,8 z8 | z4 D,4 G,6 F,2 | E,8 F,8 | E,8 A,8 | %109
w: su- sci- pe||de- pre- ca- ti-|o- nem nos-|tram.|ad dex- te-|ram Pa-|tris: mi-|
 F,8 G,8 | C,8 D,8- | D,8 G,,8 || C,6 C,2 C,8- | C,8 z8 | z16 | z4 G,4 G,4 G,4 | %116
w: se- re-|re no-|* bis.|Quo- ni- am|_||Tu so- lus|
 E,2 D,2 C,2 D,2 E,2 F,2 G,4- | G,2 G,2 G,4 G,4 G,4 | C,4 C,4 G,6 G,2 | G,8 C,8 | F,8 G,8- | %121
w: Do- * * * * * *|* mi- nus. Tu so-|lus Al- tis- si-|mus. Je-|su Chri-|
 G,8 C,8 | z8 z4 D,4 | G,4 E,2 E,2 ^F,4 G,4 | A,8 G,8 | z16 | z4 D,4 G,4 E,2 E,2 | ^F,4 G,4 E,8 | %128
w: * ste.|in|glo- ri- a De- i|Pa- tris,||in glo- ri- a|De- i Pa-|
 D,8 z4 D,4 | B,,4 G,,4 A,,4 B,,4 | C,8 G,,4 G,4 | E,4 C,4 D,4 E,4 | F,4 G,4 C,8 | D,16 | G,,16 |] %135
w: tris. A-||* men, a-||* * men,|a-|men.|
 z8 G,8- | G,4 G,4 E,6 D,2 | C,6 B,,2 C,2 D,2 E,2 F,2 | G,4 A,4 G,8 | C,8 F,6 E,2 | D,8 G,6 F,2 | %141
w: San-|* ctus, san- *||* ctus, san-|ctus Do- mi-|nus, Do- mi-|
 E,8 F,4 D,4 | A,6 A,2 D,8 | z8 z4 D,4 | G,4 E,4 ^F,8 | G,4 C,4 D,8 | G,,4 G,6 =F,2 E,4 | %147
w: nus De- us|Sa- ba- oth.|Ple-|ni sunt coe-|li et ter-|ra glo- ri- a,|
 A,6 G,2 F,8 | G,6 F,2 E,8 | D,8 G,,8 | z4 D,4 G,4 E,4 | ^F,4 G,4 D,8 | G,16 |] z16 | z16 | z16 | %156
w: glo- ri- a,|glo- ri- a|tu- a.|Ho- san- na|in ex- cel-|sis.||||
 z16 | z16 | z16 | z16 | z16 | z16 | z16 | z16 | z16 | z16 | z16 | z16 | z16 | z16 | z16 | z16 |] %172
w: ||||||||||||||||
 z16 | z16 | z8 G,8- | G,4 G,4 A,6 G,2 | F,8 G,4 G,4 | E,4 E,2 E,2 F,4 G,4 | A,8 G,8 | C,8 z8 | %180
w: ||A-|* gnus De- *|* i, qui|tol- lis pec- ca- ta|mun- *|di,|
 D,4 D,4 E,6 D,2 | C,8 D,4 D,4 | B,,4 B,,2 B,,2 C,8 | D,8 E,8 | D,8 G,8 | E,8 A,8 | D,8 E,8 | %187
w: A- gnus De- *|* i, qui|tol- lis pec- ca-|ta mun-|di: mi-|se- re-|re no-|
 F,8 G,8 | C,8 C,8 | G,8 C,6 D,2 | E,2 F,2 G,4 D,8 | G,,16 |] %192
w: |bis, mi-|se- re- *|* * re no-|bis.|

